X:1325
T:Polska 366 från Närke
S:Efter Carl Gustaf Holmberg
O:Ringkarleby, Närke
Z:[[http://www.bluerose.karenlmyers.org/IncipitsPolskaSlangSouthern8.html|Karen Myers (#1659)]]
B:Jämför [[http://www.smus.se/earkiv/fmk/browselarge.php?lang=sw&katalogid=M+170&bildnr=00055|SMUS - katalog M170 bild 55]] ur [[Notböcker/Conrad Sandstens notbok]]
B:Jämför [[http://www.smus.se/earkiv/fmk/browselarge.php?lang=sw&katalogid=Ma+1&bildnr=00021|SMUS - katalog M1 bild 21]] nr 57 ur [[Notböcker/Pehr Anderssons notbok]]
N:Jämför [[Musik/2345|+]] och [[Musik/2759|+]]
M:3/4
L:1/8
R:Polska
R:Slängpolska
K:D
DF Ad fa | ag/f/ gf/e/ fa | DF Ad fa | ag/f/ e4 :: fa gf ed |
cd ed c(B/A/) | fa gf ed | cd/e/ A4 | fa Bc de | ed/c/ d4 :|
(:musicend:)

(:music:)
